X:201
M:C
L:1/8
K:G Minor
f<d c>A G2G:|
^f|g<ab<a g<d d>=e|f>gf>c A<F F>^f|g>a b<a g<d d>g|f>dc>A G2 G>f|
g>ab>a g<d d>=e|f>gf>c A>GF>f|g>ab>a g<f a>g|f>dc>A G2G||

